logos/pagerduty.svg

<?xml version="1.0" encoding="UTF-8"?>
<svg width="512px" height="106px" viewBox="0 0 512 106" version="1.1" xmlns="http://www.w3.org/2000/svg" xmlns:xlink="http://www.w3.org/1999/xlink" preserveAspectRatio="xMidYMid">
    <title>PagerDuty</title>
    <g>
        <path d="M466.251949,21.9548625 L477.491998,55.0972507 C479.487895,60.8748461 480.853508,64.8141157 482.376693,69.69881 L482.376693,69.69881 L482.586787,69.69881 C484.53016,64.0262618 485.580632,60.6647517 487.681576,54.7821092 L487.681576,54.7821092 L499.236767,22.0073861 L512,22.0073861 C504.804268,40.1280263 492.198605,71.6947066 484.792778,90.2355355 C481.221174,99.2170702 472.55478,105.047189 462.942963,105.047189 L462.942963,105.047189 L457.007796,105.047189 L457.007796,94.700041 L462.785392,94.700041 C467.880181,94.700041 472.502257,91.601149 474.44563,86.8740254 C475.023389,85.4558884 475.548625,84.0902749 476.073861,82.7771851 L476.073861,82.7771851 L452.805909,21.9548625 L466.251949,21.9548625 Z M144.702503,20.1165367 C155.259746,20.1165367 161.615101,24.6335659 165.081658,29.6233073 C164.976611,28.3627411 164.976611,27.0496512 164.976611,25.7890849 L164.976611,21.9548625 L176.584325,21.9548625 L176.584325,71.1169471 C176.584325,93.1243332 166.499795,105.047189 146.12064,105.047189 C130.941321,105.047189 121.802216,97.0636028 118.545753,85.0356996 L130.836274,85.0356996 C132.937218,90.6032007 137.296676,95.5929421 146.330735,95.5929421 C160.249487,95.5929421 165.186705,86.926549 165.186705,70.4341403 L165.124333,70.4177267 L165.124333,70.4177267 L165.038982,70.3455068 C165.022569,70.3356586 165.002872,70.3290931 164.976611,70.3290931 C161.982766,75.528929 155.259746,80.1510053 144.597456,80.1510053 C127.474764,80.1510053 116.549856,67.755437 116.549856,50.3701272 C116.549856,32.3020107 128.367665,20.1165367 144.702503,20.1165367 Z M214.401313,20.2741075 C234.202708,20.2741075 243.341814,35.3483792 243.341814,51.6832171 L243.341814,55.5174395 L195.758,55.517 L195.773322,55.8156125 C196.378819,66.3120371 203.186083,74.5835043 214.874025,74.5835043 C223.225277,74.5835043 227.269594,70.6442347 230.368486,65.4443989 L242.081247,65.4443989 C238.61469,76.4218301 229.002872,84.3003693 214.401313,84.3003693 C195.65039,84.3003693 183.937628,71.6947066 183.937628,52.6811654 C183.937628,33.6676241 196.123102,20.2741075 214.401313,20.2741075 Z M371.341814,22.0073861 L371.341814,55.4649159 C371.341814,67.3877719 375.281083,74.5835043 384.787854,74.5835043 C397.288469,74.5835043 399.49446,63.2384079 399.49446,49.8974149 L399.49446,22.0073861 L411.207222,22.0073861 L411.207222,73.6380796 C411.207222,76.7894953 411.207222,79.7833402 411.312269,82.7771851 L400.07222,82.7771851 L400.07222,74.110792 C396.920804,79.3106278 391.038162,84.3003693 380.743537,84.3003693 C366.61469,84.3003693 359.681576,75.6339762 359.681576,59.8768978 L359.681576,22.0073861 L371.341814,22.0073861 Z M437.521543,5.56750103 L437.521543,22.0073861 L448.866639,22.0073861 L448.866639,31.0414444 L437.521543,31.0414444 L437.521543,67.5453426 C437.521543,73.322938 440.410341,75.0562167 444.92737,75.0562167 C445.715224,75.0562167 447.133361,74.9511695 447.816167,74.8461223 L447.816167,83.5125154 C446.082889,83.7226098 444.822323,83.9852277 443.299138,83.9852277 C432.531801,83.9852277 425.703734,80.4136233 425.703734,68.2281494 L425.703734,31.0414444 L416.564629,31.0414444 L416.564629,22.0073861 L425.703734,22.0073861 L425.703734,5.56750103 L437.521543,5.56750103 Z M84.4054165,20.4316783 C98.3766927,20.4316783 109.14403,26.2092737 109.14403,48.4792778 L109.14403,60.2970866 C109.14403,70.1189988 109.616742,77.3147312 110.667214,82.8822323 L99.6372589,82.8822323 L99.6372589,82.8297087 C99.2695938,80.4136233 99.2695938,78.8904391 99.0594994,74.4784571 C94.4374231,81.09643 88.2921625,83.9852277 78.5752975,83.9852277 C65.812064,83.9852277 56.5679114,77.73492 56.5679114,66.3898236 C56.5679114,53.3114485 69.0685269,49.0045137 85.2983176,46.7985228 C89.3426344,46.2207632 93.8596635,45.7480509 97.7989331,45.4329093 C97.7989331,33.4050062 91.1284366,29.7808781 84.1427985,29.7808781 C77.1571604,29.7808781 72.0623718,34.6655724 72.0623718,41.073451 L60.7172753,41.073451 C60.7172753,28.7304062 70.4341403,20.4316783 84.4054165,20.4316783 Z M276.799343,20.5367255 C278.322528,20.5367255 279.005334,20.6417727 279.793188,20.7468199 L279.793188,31.4091096 C278.742716,31.1990152 277.009438,31.0414444 275.748872,31.0414444 C264.77144,31.0414444 262.670497,39.130078 262.670497,51.3155519 L262.670497,82.8297087 L250.957735,82.8297087 L250.957735,32.9322938 C250.957735,29.0980714 250.957735,25.7365613 250.852688,22.0599097 L262.092737,22.0599097 L262.092737,29.7808781 C264.03611,24.1083299 269.971276,20.5367255 276.799343,20.5367255 Z M307.210505,0 C337.569142,0.210094378 352.170702,15.0217481 352.275749,41.5986869 C352.380796,64.2363562 340.668034,82.5145671 309.206401,82.8297087 L286.988921,82.8297087 L286.988921,0 L307.210505,0 Z M12.1329503,60.7172753 L12.1329503,82.7771851 L0,82.7771851 L0,60.7172753 L12.1329503,60.7172753 Z M98.0090275,53.7841609 C78.2076323,55.832581 69.1735741,57.775954 69.1735741,66.2322528 C69.1735741,71.904801 73.7956504,75.4764054 81.2014772,75.4764054 C92.0738613,75.4764054 97.9039803,68.8584325 97.9039803,57.0406237 C97.9039803,55.5174395 97.9039803,54.4669676 98.0090275,53.7841609 Z M307.473123,10.3996717 C303.616914,10.3996717 299.617451,10.4951743 299.25375,10.5040583 L299.226918,10.5047189 L299.226918,10.5047189 L299.226918,72.4825605 L306.317604,72.4825605 C328.32499,72.4825605 339.827657,64.0787854 339.827657,41.5461633 C339.775133,21.7447682 328.377513,10.3996717 307.473123,10.3996717 Z M147.276159,29.9909725 C136.141157,29.9909725 129.31309,37.9745589 129.31309,50.26508 C129.31309,62.0828888 135.931063,70.5391875 147.276159,70.5391875 C157.465737,70.5391875 165.344276,63.3434551 165.344276,49.8974149 C165.344276,37.9745589 158.411161,29.9909725 147.276159,29.9909725 Z M24.5788166,0.000586875206 C34.8304878,0.0219644123 39.3010184,0.640787854 45.6955273,4.04431678 C52.733689,7.87853919 57.0931473,15.3894132 57.0931473,24.7911366 C57.0931473,33.4575297 53.5740665,40.9684038 46.7459992,45.4854329 C40.4956914,49.6347969 33.4050062,50.2125564 23.8982355,50.2125564 L23.8982355,50.2125564 L0,50.2125564 L0,0 Z M214.138695,29.7808781 C204.631924,29.7808781 197.331145,36.0311859 196.175626,46.2207632 L231.15634,46.2207632 C230.105868,36.6089454 224.065654,29.7808781 214.138695,29.7808781 Z M44.5925318,24.8961838 C44.5925318,14.9167009 38.342224,10.5047189 25.8416085,10.6622897 L25.8416085,10.6622897 L12.1329503,10.7673369 L12.1329503,39.7078375 L26.681986,39.7078375 C36.8715634,39.7078375 44.5925318,35.6109971 44.5925318,24.8961838 Z" fill="#06AC38"></path>
    </g>
</svg>

<svg preserveAspectRatio="xMidYMid" viewBox="0 0 512 106" xmlns="http://www.w3.org/2000/svg">
  <path fill="#06AC38" d="m466.252 21.955 11.24 33.142c1.996 5.778 3.362 9.717 4.885 14.602h.21c1.943-5.673 2.994-9.034 5.095-14.917l11.555-32.775H512c-7.196 18.121-19.801 49.688-27.207 68.229a23.489 23.489 0 0 1-21.85 14.811h-5.935V94.7h5.777c5.095 0 9.717-3.099 11.66-7.826.578-1.418 1.104-2.784 1.629-4.097l-23.268-60.822h13.446Zm-321.55-1.838c10.558 0 16.913 4.517 20.38 9.506-.105-1.26-.105-2.573-.105-3.834v-3.834h11.607v49.162c0 22.007-10.084 33.93-30.463 33.93-15.18 0-24.319-7.983-27.575-20.011h12.29c2.101 5.567 6.46 10.557 15.495 10.557 13.918 0 18.856-8.666 18.856-25.159l-.063-.016-.085-.072a.117.117 0 0 0-.062-.017c-2.994 5.2-9.717 9.822-20.38 9.822-17.122 0-28.047-12.396-28.047-29.78 0-18.069 11.818-30.254 28.153-30.254Zm69.7.157c19.8 0 28.94 15.074 28.94 31.41v3.833h-47.584l.015.299c.606 10.496 7.413 18.768 19.101 18.768 8.351 0 12.396-3.94 15.494-9.14h11.713c-3.466 10.978-13.078 18.856-27.68 18.856-18.75 0-30.463-12.605-30.463-31.619 0-19.013 12.185-32.407 30.463-32.407Zm156.94 1.733v33.458c0 11.923 3.94 19.119 13.446 19.119 12.5 0 14.706-11.346 14.706-24.687v-27.89h11.713v51.631c0 3.151 0 6.145.105 9.14h-11.24V74.11c-3.151 5.2-9.034 10.19-19.328 10.19-14.13 0-21.062-8.667-21.062-24.424v-37.87h11.66Zm66.18-16.44v16.44h11.345v9.034h-11.345v36.504c0 5.778 2.888 7.511 7.405 7.511.788 0 2.206-.105 2.89-.21v8.667c-1.734.21-2.995.472-4.518.472-10.767 0-17.595-3.571-17.595-15.757V31.041h-9.14v-9.034h9.14V5.567h11.818ZM84.405 20.433c13.972 0 24.739 5.777 24.739 28.047v11.818c0 9.822.473 17.018 1.523 22.585h-11.03v-.052c-.367-2.416-.367-3.94-.578-8.352-4.622 6.618-10.767 9.507-20.484 9.507-12.763 0-22.007-6.25-22.007-17.595 0-13.079 12.5-17.385 28.73-19.591 4.045-.578 8.562-1.05 12.5-1.366 0-12.028-6.67-15.652-13.655-15.652-6.986 0-12.08 4.885-12.08 11.292H60.716c0-12.343 9.717-20.641 23.688-20.641Zm192.394.105c1.524 0 2.206.105 2.994.21V31.41c-1.05-.21-2.784-.368-4.044-.368-10.978 0-13.079 8.09-13.079 20.275V82.83h-11.712V32.932c0-3.834 0-7.195-.105-10.872h11.24v7.72c1.943-5.672 7.878-9.243 14.706-9.243ZM307.211 0c30.358.21 44.96 15.022 45.065 41.599.105 22.637-11.608 40.916-43.07 41.23H286.99V0h20.222ZM12.133 60.717v22.06H0v-22.06h12.133Zm85.876-6.933c-19.801 2.049-28.835 3.992-28.835 12.448 0 5.673 4.622 9.244 12.027 9.244 10.873 0 16.703-6.618 16.703-18.435 0-1.524 0-2.574.105-3.257ZM307.473 10.4c-3.856 0-7.856.095-8.22.104h-.026v61.979h7.09c22.008 0 33.51-8.404 33.51-30.937-.052-19.801-11.45-31.146-32.354-31.146ZM147.276 29.99c-11.135 0-17.963 7.984-17.963 20.274 0 11.818 6.618 20.274 17.963 20.274 10.19 0 18.068-7.196 18.068-20.642 0-11.922-6.933-19.906-18.068-19.906ZM24.58.001C34.83.022 39.3.64 45.696 4.044 52.734 7.88 57.093 15.39 57.093 24.791c0 8.667-3.519 16.177-10.347 20.694-6.25 4.15-13.341 4.728-22.848 4.728H0V0Zm189.56 29.78c-9.507 0-16.808 6.25-17.963 16.44h34.98c-1.05-9.612-7.09-16.44-17.017-16.44ZM44.593 24.896c0-9.98-6.25-14.391-18.751-14.234l-13.709.105v28.94h14.549c10.19 0 17.91-4.096 17.91-14.81Z"/>
</svg>
